outputs/icons/file/file_round.svg

<svg xmlns="http://www.w3.org/2000/svg" width="1200" height="1200" fill="none"><path fill="#000" d="M300 100c-55 0-99.5 45-99.5 100l-.5 800c0 55 44.5 100 99.5 100H900c55 0 100-45 100-100V405.178c0-3.315-1.315-6.495-3.66-8.839L703.66 103.661a12.5 12.5 0 0 0-8.84-3.661zm362.5 350c-6.905 0-12.5-5.596-12.5-12.5V205.178c0-11.136 13.465-16.714 21.34-8.839l232.32 232.322c7.875 7.875 2.3 21.339-8.84 21.339z"/></svg>

<svg width="1200" height="1200" viewBox="0 0 1200 1200" fill="none" xmlns="http://www.w3.org/2000/svg"><path d="M300 100C245 100 200.5 145 200.5 200L200 1000C200 1055 244.5 1100 299.5 1100H900C955 1100 1000 1055 1000 1000V405.178C1000 401.863 998.685 398.683 996.34 396.339L703.66 103.661C701.315 101.317 698.14 100 694.82 100H300ZM662.5 450C655.595 450 650 444.404 650 437.5V205.178C650 194.042 663.465 188.464 671.34 196.339L903.66 428.661C911.535 436.536 905.96 450 894.82 450H662.5Z" fill="black"/></svg>
